X:19011
T:Xiraldilla (CT 231)
R:Xiraldilla
C:Tradicional
S:Música Tradicional Asturiana, (C) Tello & Tito. Asturies, 2001.
S:http://pagina.de/MusTradAst <telloytito@asturies.org>
N:Xiraldilla, transcrita en Uviéu.
O:Uviéu
A:Asturies
Z:Cancioneru de Torner 231
M:3/8
L:1/8
Q:3/8=88
W:Con esi mandilín blancu
W:vas publicando la guerra,
W:y yo como buen soldado,
W:siento plaza en tu bandera.
W:
W:Qué buen soldado lleva el rei;
W:la escarapela le está mui bien.
K:G
|: GGG|GAB|c2 c-|c3|Bdd|cdc|[1(B>A)G-|G3 :|[2(B>A)G|
|: BBB|(A>G)F|GGG|G3 :||


